X:1
T:Title
%%score { ( 1 2 ) | ( 3 4 ) }
L:1/8
M:3/4
K:Db
V:1 treble nm="Grand Piano"
V:2 treble 
V:3 bass 
V:4 bass 
V:1
 z2 z2[Q:1/4=100] z E | F2 F2 F2 | G2 G2 F2 | [G,CE]2 [G,CE]2[K:treble] [A,CF]2 | [F,D]4 [DFA]2 | %5
 [Fd]2 [Ac]2 [GB]2 | [FA]2 [A,DF]2 [A,DF]2 | [=G,DF]2 [G,DE]2 [G,D]2 | [A,CE]4 [A,CE]2 | %9
 [A,DF]2 [A,DF]2 [A,DF]2 | [=A,EF]3 [A,EG] [A,EF]2 | d2 d2 c2 | [DB]4 [DB]2 | [CB]2 [CA]2 [CG]2 | %14
 [DF]2 [FA]2 [Fd]2 | E2 F2 =G2 |[M:2/4] [CA]4 |[M:1/4] [GA]2 |[M:3/4] [FA]3 [_F=G] [=FA]2 | %19
 [DF]4 [Fd]2 | d3 c d2 | B4 B2 | B2 B2 B2 | _c3 B B2 | [Ge]2 [Ge]2 [=Gd]2 | [Ac]4 [GA]2 | %26
 [Fd]2 [Fd]2 [Fd]2 | c2 c2 c2 | B2 B2 B2 | A4 [Gc]2 | [Fd]2 [FA]2 F2 | E2 F2 G2 | F2 F2 [CE]2 | %33
[M:2/4] D4 |] %34
V:2
 z2 z2 D2 | x6 | x6 | x4[K:treble] x2 | x6 | x6 | x6 | x6 | x6 | x6 | x6 | x6 | x6 | x6 | x6 | x6 | %16
[M:2/4] x4 |[M:1/4] x2 |[M:3/4] x6 | x6 | x6 | x6 | x6 | x6 | x6 | x6 | x6 | x6 | x6 | x6 | x6 | %31
 x6 | x6 |[M:2/4] x4 |] %34
V:3
 z2 z2 F,G, | [D,A,D]2 [D,A,D]2 [D,A,D]2 | [D,B,D]2 [D,B,D]2 [D,A,D]2 | A,,2 A,,2 A,,2 | D,4 D,2 | %5
 [D,A,]2 [D,D]2 [D,D]2 | [D,D]2 D,2 D,2 | B,,2 B,,2 B,,2 | A,,4 A,,2 | D,2 D,2 D,2 | C,3 C, C,2 | %11
 [F,B,F]2 [F,B,F]2 [F,=A,E]2 | [B,,B,]4 [B,,F,]2 | [A,,G,]2 [A,,G,]2 [A,,A,]2 | %14
 [D,A,]2 [D,D]2 [D,A,]2 | [E,=G,D]2 [E,A,D]2 [E,B,D]2 |[M:2/4] [A,,A,]4 |[M:1/4] [A,C]2 | %18
[M:3/4] [D,D]3 [D,D] [D,D]2 | [D,A,]4 [D,_C]2 | [G,B,G]3 [G,=A,G] [G,B,G]2 | [G,DG]4 [G,D]2 | %22
 [F,A,=D]2 [F,A,D]2 [F,A,D]2 | [F,A,=D]3 [F,A,D] [F,A,D]2 | [E,B,]2 [E,B,]2 [E,E]2 | %25
 [A,E]4 [C,A,]2 | [D,A,]2 [D,A,]2 [D,A,]2 | [F,=A,E]2 [F,A,E]2 [F,A,E]2 | [G,D]2 [G,D]2 [G,D]2 | %29
 [F,A,D]4 [E,A,]2 | [D,A,]2 [D,D]2 [D,A,D]2 | [G,B,D]2 [F,B,=D]2 [E,B,E]2 | %32
 [A,D]2 [A,D]2 [A,,G,]2 |[M:2/4] [D,F,]4 |] %34
V:4
 z2 z2 D,2 | x6 | x6 | x6 | x6 | x6 | x6 | x6 | x6 | x6 | x6 | x6 | x6 | x6 | x6 | x6 |[M:2/4] x4 | %17
[M:1/4] x2 |[M:3/4] x6 | x6 | x6 | x6 | x6 | x6 | x6 | x6 | x6 | x6 | x6 | x6 | x6 | x6 | x6 | %33
[M:2/4] x4 |] %34

